X:123
T:Piper's Despair
M:4/4
L:1/8
R:reel
K:D
EFGA BAFA|dedc dBAF|D2FD ADFA|dedc dBAF|
EFGA BAFA|dedc dBAF|D2FA dfaf|gfed Bee2:|
e2ge begf|efga bfaf|dff2 aff2|dff2 afdf|
e2ge begf|efga bfaf|dff2 abaf|gfed Bee2:|
